X:1
T:Title
%%score [ 1 2 3 4 ]
L:1/8
Q:1/4=96
M:2/2
K:G
V:1 treble nm="Soprano"
V:2 treble nm="Alto"
V:3 treble-8 nm="Tenor"
V:4 bass nm="Bass"
V:1
"^Alerte et vif" z8 | z8 |!f! z2 (!>!G2 F2){/B} (!>!A2 | F2) z2 z4 | z8 |!mf! z c!<(!dB cABG!<)! | %6
w: ||Y- ver, *|ver,||Y- ver vous n'es- tes qu'un vil-|
!f! F2 z!<(! G F2!<)! z G | FGFG F z z2 | z8 |!p! z4"^Solo" z2 (E2 ||[K:E] B2 c2 =d2 (cB) | %11
w: lain; Y- ver, vous|n'es- tes qu'un vil- lain;||Es-|té est plai- sant _|
 (e2 c2) (A2 c2) | B8- | B2) (e2 B4- | B2) .e.e !tenuto!B4- | B2 .e.e !tenuto!B4 | %16
w: et _ gen- *|til|_ Es- té|_ est plai- sant|_ et gen- til|
!pp!"^Tutti" .B2 .B2 .B2 .B2 |"^-"!p! .B2!<(! .B.B!<)! !>!e2 (B2 | %18
w: Es- té est plai-|sant et gen- til En|
!<(! (3B2 B2!<)! B2!>(! (3c2 c2 c2!>)! |"^più"!p! B)(.B.B.B .B.B.c.A | !tenuto!F8-) | %21
w: té- moing de may et d'a-|vril Qui l'ac- com- paign- ent soir et|main.|
"^Solo"!p! F4"^doux" (F4 | G4 c4 | G2 F2-)!<(! (3F2 G2 d2!<)! |!p! G2 (.G2 .^A2 .G2 | %25
w: _ Es-|té re-|vet champs _ bois et|fleurs De sa li-|
!p! (3.^A2 .G2"^più" .A2 (!tenuto!A2!>(! G2-))!>)! |!p! G2"^cresc." (G2 (3^A2 G2 A2 | %27
w: vrée de ver- du- re.|_ Et de main- tes|
 (3B2 ^A2 B2 (3c2 B2 c2) |!f! (!tenuto!d4"^dim." c2 B2 | ^A2 G2 G2 F2 |!p! F8- |!>(! F4 G4!>)! | %32
w: au- tres cou- leurs _ _|Par l'or don-|nan- ce de na-|­tu-|­- *|
!pp! G8-) | G4 z4 | z8 |"^Tutti"!f! z2!<(! (=d2!<)! .c2) z2 | z8 |!p! z2 (=d2 c2) (e2 | %38
w: ­re.|_||Y- ver,||Mais vous, Y-|
 ^d2) =d2 c2 e2 |"^cre   -    scen    -     do" d2 .f2 !^!f2 d2 |!<(! z2 f2 (!^!f2 d2)!<)! | %41
w: ver, trop es- tes|plein De nè- ge,|de nè- ge,|
!f!!f!!<(! (f2!<)! e2)!<(! !^!f2 !>!d!<)!!>!d | %42
w: vent, _ pluye et gré-|
!f! !^!f2"^Retenu""^en diminuant" z2 (!tenuto!F2 !tenuto!F2 | !tenuto!F2 !tenuto!F2 !tenuto!F4- | %44
w: zil. On vous|deust ba- nir|
 F4 !tenuto!F2 !tenuto!F2 |!p!!>(! !tenuto!F8-)!>)! | F2 z2 z4 ||[K:G]"^a Tempo" z8 | z8 | z8 | %50
w: _ en é-|xil.|_||||
 z8 | z8 |!f! z4 z2 !^!e2 | !^!d3 f e=cdB |"^-"!p! A2 z2 !tenuto!A4 |!>(! (!tenuto!G3 B A^FGE!>)! | %56
w: ||Y-|ver, vous n'es- tes qu'un vil-|lain, Y-|ver, vous n'es- tes qu'un vil-|
 E2) z2 z4 |!p! z4!>(! !^!!tenuto!E4!>)! | E8- |!p! E4 !^!!tenuto!E4 | %60
w: lain.|Y-|ver,|_ Y-|
"^En augmentant et en serrant le mouvement"!>(! !tenuto!E4 z4!>)! | z8 | z4 !tenuto!B4- | %63
w: ver,||Y-|
 B4 !tenuto!B4- | B8- |!f! B2!<(! !^!B4 B2- | B2 !^!B4!<)! !^!B2 | z8 | %68
w: * ver,|_|* Y- ver,|_ Y- ver,||
!f!!ff! z!<(! .B.A.c .B.G.A!<)!.c | !^!!fermata!e8 |] %70
w: Y- ver, vous n'es- tes qu'un vil-|lain.|
V:2
!f! z4 !>!B4 | !>!A3 .c .B.G.A.F | E8- | E3!>(! .E .E.E.E.E!>)! |!<(! E8-!<)! |!mf! E4 E3!<(! G | %6
w: ||||||
w: Y-|ver, vous n'es- tes qu'un vil-|lain;|_ vous n'es- tes qu'un vil-|lain;|_ qu'un vil-|
!f! E2!<)! z G E2 z G | EGEG E z z2 | z8 | z8 ||[K:E]!p! z4"^Solo" (E4- | E4 F4 | G2 (AG) F2 (GF) | %13
w: |||||||
w: lain; Y- ver, vous|n'es- tes qu'un vil- lain;|||Es-|­- ­-|té est _ plai- sant _|
 E2 (FE) D2 ED) | (A2 (BA) G2 (AG) | F2 (GF) (EF) (GB)) |!pp!"^Tutti" (A2 (BA) G3 A | %17
w: ||||
w: et gen- * til _ _|Es- té _ est plai- *|sant et _ gen- * til _|Es- té _ est plai-|
"^-"!p! F2!<(! GF!<)! !tenuto!E3) (F |!<(! (3D2 E2!<)! D2!>(! (3C2 D2 E2!>)! | %19
w: ||
w: sant et gen- til En|té- moing de may et d'a-|
"^più"!p! F)(.F.G.F .F.E.A.F | !tenuto!D8-) |"^Solo"!p! D4"^doux" (D4 | B,4 F4 | %23
w: ||||
w: vril Qui l'ac- com- paign- ent soir et|main.|_ Es-|te re-|
 D2 B,2-)!<(! (3B,2 D2 F2!<)! |!p! D2 (.D2 .F2 .D2 | %25
w: ||
w: vet champs _ bois et|fleurs De sa li-|
!p! (3.F2 .D2"^più" .F2 (!tenuto!F2!>(! D2-))!>)! |!p! D2"^cresc." (D2 (3F2 D2 F2 | %27
w: |* Et de main- tes|
w: vree de ver- du- re.|_ _ _ _ _|
 (3G2 F2 G2 (3^A2 G2 A2) |!f! (!tenuto!B4"^dim." ^A2 G2 | F2 E2 D2 B,2 |!p! ^A,8- | %31
w: au- tres cou- leurs _ _|Par l'or don-|nan- ce de na-|­tu-|
w: ||||
!>(! A,4 ^B,4!>)! |!pp! D8-) | D4 z4 |"^Tutti"!mf! z2 .B,2 !>!=D4- |!f! D2!<(! (D2!<)! .=F2) z2 | %36
w: ­- *|­re.|_|Mais vous,|_ Y- ver,|
w: |||||
!mf! z2 B,2 !>!D4- |!p! D2 .=D.E .=F.F (F^F) | =G2 .=D.E .=F.F.F.^F | %39
w: Mais vous,|_ Mais vous, Y- ver, mais _|vous es- tes plein De nè- ge,|
w: |||
"^cre   -    scen    -     do" .=G.^G.=A.A A2 z2 |!<(! .=G.^G.=A.A A2!<)! z2 | %41
w: vent, pluye et gré- zil,|vent, pluye et gré- zil,|
w: ||
!f!!f!!<(! (=G^G!<)! =A2)!<(! =G^G.A!<)!.A |!f! !^!^A2"^en diminuant" z2 (!tenuto!F2 !tenuto!F2 | %43
w: vent, _ _ pluye _ et gré-|zil. On vous|
w: ||
 !tenuto!E2 !tenuto!E2 !tenuto!=D4- | D4 !tenuto!E2 !tenuto!=D2 |!p!!>(! (!tenuto!C8)!>)! | %46
w: deust ba- nir|_ en é-|xil.|
w: |||
 C2) z2 z4 ||[K:G] z8 | z8 | z8 |!mf! z4 !tenuto!G4 |!<(! !tenuto!F3 A GEFD | %52
w: _||||Sans|point fla- ter je par- le|
w: ||||||
!f! A4!<)!!<(! GAB^c!<)! | !^!d2 B2 G2 G2 |"^-"!p! F2 z2 !tenuto!=F4 |!>(! (!tenuto!E6 (D!>)!C) | %56
w: plein: Y- * * *|ver, Y- ver, Y-|ver, Y-|ver, Y- *|
w: ||||
!p! B,2) z2 z2!<(! (!tenuto!B,2!<)! | A,6) z2 |!p! z4 (B,4 |"^-" A,4) z4 |!p! z4 (E2 F2 | %61
w: ver, Y-|ver,|Y-|ver,|vous n'es-|
w: |||||
 D2 E2 F2 G2) | (E2 F2 G2 A2-) | (A2 F2 A2 B2 | A2 F2) (A2 B2) | (!^!A2 F2) (!^!A2 F2) | %66
w: tes qu'un vil- lain.|Y- ver vous n'es-|* tes qu'un vil-|lain, _ Y- ver,|Y- ver, Y- ver,|
w: |||||
 (!^!A2 F2) (!^!A2 !^!F2) | z8 |!f!!ff! z!<(! .E.F.E .G.E.=F!<)!.^F | !^!!fermata!G8 |] %70
w: Y- ver, Y- ver,||Y- ver, vous n'es- tes qu'un vil-|lain.|
w: ||||
V:3
 z8 | z8 |!f! z2 (!>!d2 c2){/f} (!>!e2 | c2) z2 z4 |!p! z!<(! efd ecd!<)!B |!ff! c2 z2 z4 | %6
w: ||||||
w: ||Y- ver, *|ver,|Y- ver vous n'es- tes qu'un vil-|lain;|
!f! !^!c4 !^!c2 !^!c2 | !^!c2 !^!c2 !^!c2 !^!c2 | (!^!c8- |"^molto dim." c4 d4 ||[K:E] e8-) | e8 | %12
w: ||||||
w: Y- ver, vous|n'es- tes qu'un vil-|lain,|_ _|||
 z8 |"^Solo"!p! z4 ((f2 gf) | (e2 fe) d2 (ed) | c2 (dc) (Bc) (df)) | %16
w: ||||
w: |Es- * *|té _ _ est plai- *|sant et _ gen- * til _|
!pp!"^Tutti" (e2 (de) (fe) (de) |"^-"!p! c2!<(! Bc!<)! !tenuto!dc) (!tenuto!Bc | %18
w: ||
w: Es- té _ est _ plai- *|sant et gen- til _ En _|
!<(! (3A2 B2!<)! A2!>(! (3G2 A2 B2!>)! |"^più"!p! c)(.c.d.c .c.B.A.c | !tenuto!d8-) | %21
w: |||
w: té- moing de may et d'a-|vril Qui l'ac- com- paign- ent soir et|main.|
"^Solo"!p! d4"^doux" (B4 | d4 ^A4 | B2 d2-)!<(! (3d2 B2 ^A2!<)! |!p! B2 (.B2 .c2 .B2 | %25
w: ||||
w: _ Es-|te re-|vet champs _ bois et|fleurs De sa li-|
!p! (3.c2 .B2"^più" .c2 (!tenuto!c2!>(! B2-))!>)! |!p! B2"^cresc." (B2 (3c2 B2 c2 | %27
w: |* Et de main- tes|
w: vree de ver- du- re.|_ _ _ _ _|
 (3d2 c2 d2 (3e2 d2 e2) |!f! (!tenuto!f4"^dim." fe d2- | dcB^A GA Bc |!p! d8- |!>(! d8!>)! | %32
w: au- tres cou- leurs _ _|Par l'or _ don-|* * nan- ce de _ na- *|­tu-|­-|
w: |||||
!pp! ^B8-) | B4 z4 |!mf! z4"^Tutti" z2 .=d2 |!f! !>!f2!<(! (B2!<)! .B2) z2 |!mf! z4 z2 .=d2 | %37
w: ­re.||Mais|vous, Y- ver,|Mais|
w: |||||
!p! !>!f2 (.B2 B2) (=c2 | ^c2) B2 B2 =c2 |"^cre   -    scen    -     do" ^c2 =d2 !>!^d.d z2 | %40
w: vous, mais vous, Y-|ver, trop es- tes|plein De nè- ge,|
w: |||
!<(! ^c2 =d2 !>!^d.d!<)! z2 |!f!!f!!<(! (=d2!<)! ^d2)!<(! !^!=d2 !>!^d!<)!!>!d | %42
w: plein de nè- ge,|vent, * pluye et gré-|
w: ||
!f! !^!e2"^en diminuant" z2 (!tenuto!F2 !tenuto!F2 | !tenuto!=G2 !tenuto!G2 !tenuto!A4- | %44
w: zil. On vous|deust ba- nir|
w: ||
 A4 !tenuto!=G2 !tenuto!A2 |!p!!>(! !tenuto!^A8) | A2!>)! z2 z4 ||[K:G] z8 |!p! z4 !tenuto!B4 | %49
w: _ en é-|xil.|_||Sans|
w: |||||
 !tenuto!A3 c BGAF |!mf! E2 F2 G2 A2 |!<(! B2 B2 c2 d2 |!f! cd!<)!e!<(!f e2 !^!g2!<)! | %53
w: point fla- ter je par- le|plein, Sans point fla-|ter je par- le|plein: _ _ _ _ Y-|
w: ||||
 (!^!f2 d2) (c2 B2) |"^-"!p! d2 z2 (c4- |!>(! c6 (BA)!>)! | G2) z2 z4 | z8 | z8 | %59
w: ver, * Y- *|ver, Y-|ver, Y- *|ver,|||
w: ||||||
!p! z2 z"^marqué"!>(! .c .B.G.A.F!>)! |!p! E2"^en fausset" z2 b4- | b4 b4- | b4 d2 e2- | %63
w: vous n'es- tes qu'un vil-|lain. Y-|* ver,|_ vous n'es-|
w: ||||
 (e2 c2 e2 f2 | e2 c2) (e2 f2) | (!^!e2 a2) (!^!e2 a2) | (!^!e2 a2) (!^!e2 !^!a2) | z8 | %68
w: * tes qu'un vil-|lain. _ Y- ver,|Y- ver, Y- ver,|Y- ver, Y- ver,||
w: |||||
!f!!ff! z!<(! .g.d.c .d.c.d!<)!.c | !^!!fermata!B8 |] %70
w: Y- ver, vous n'es- tes qu'un vil-|lain.|
w: ||
V:4
 z8 | z8 |!f! z2 (!>!B,2 A,2){/D} (!>!C2 | A,2) z2 z4 |!mf! z8 | A,2!<(! B,G, A,F,G,B,!<)! | %6
w: ||||||
w: ||Y- ver, *|ver,||Y- ver vous n'es- tes qu'un vil-|
!f! ^A,2 z B, A,2 z B, | ^A,B,A,B, A, z z2 | z8 | z8 ||[K:E] z8 | z8 | z8 |!p! z8"^Solo" | %14
w: ||||||||
w: lain; Y- ver, vous|n'es- tes qu'un vil- lain,|||||||
 (C2 (DC) B,2 (CB,) | A,2 (B,A,) (G,A,) (B,D)) |!pp!"^Tutti" (C2 (B,C) (DC) (B,C) | %17
w: |||
w: Es- té _ est plai- *|sant et _ gen- * til _|Es- té _ est _ plai- *|
"^-"!p! A,2!<(! G,A,!<)! !tenuto!B,A,) (!tenuto!G,A, | %18
w: |
w: sant et gen- til _ En _|
!<(! (3F,2 G,2!<)! F,2!>(! (3E,2 F,2 G,2!>)! |"^più"!p! A,)(.B,.B,.A, .A,.G,.F,.A, | %20
w: ||
w: té- moing de may et d'a-|vril Qui l'ac- com- paign- ent soir et|
 !tenuto!B,8-) |"^Solo"!p! B,4"^doux" (B,4 | G,4 F,4 | G,2 B,2-)!<(! (3B,2 G,2 D,2!<)! | %24
w: ||||
w: main.|_ Es-|te re-|vet champs _ bois et|
!p! G,2 (.G,2 .F,2 .G,2 |!p! (3.F,2 .G,2"^più" .F,2 (!tenuto!F,2!>(! G,2-))!>)! | %26
w: ||
w: fleurs De sa li-|vree de ver- du- re.|
!p! G,2"^cresc." (G,2 (3F,2 G,2 F,2 | (3E,2 F,2 E,2 (3D,2 E,2 D,2) | %28
w: * Et de main- tes|au- tres cou- leurs _ _|
w: _ _ _ _ _||
!f! (!tenuto!C,4"^dim." C,2 D,2 | E,F, G,^A, B,2 D2 |!p! D,8- |!>(! D,4 G,4!>)! |!pp! G,8-) | %33
w: Par l'or don-|nan- * ce _ de na-|­tu-|­- *|­re.|
w: |||||
"^Tutti"!mf! G,4 z2 .G,2 | !>!B,8- |!f!!mf! B,2!<(! (=G,2!<)! .^G,2) .G,2 | !>!B,8- | %37
w: _ Mais|vous,|_ Y- ver, mais|vous,|
w: ||||
!p! B,2 (=G,2 ^G,2) (A,2 | ^A,2) =G,2 ^G,2 =A,2 | %39
w: _ Mais vous, Y-|ver, trop es- tes|
w: ||
"^cre   -    scen    -     do" ^A,2 B,2 !>!=C.C z2 |!<(! ^A,2 B,2 !>!=C.C!<)! z2 | %41
w: plein De nè- ge,|plein de nè- ge,|
w: ||
!f!!f!!f!!<(! (B,2!<)! =C2)!<(! !^!B,2 !>!C!<)!!>!C | %42
w: vent, * pluye et gré-|
w: |
 !^!^C2"^en diminuant" z2 (!tenuto!F,2 !tenuto!F,2 | !tenuto!F,2 !tenuto!F,2 !tenuto!F,4- | %44
w: zil. On vous|deust ba- nir|
w: ||
 F,4 !tenuto!F,2 !tenuto!F,2 |!p!!>(! !tenuto!F,8-)!>)! |!p! F,2 z2 !tenuto!F,4 || %47
w: _ en é-|xil.|_ Sans|
w: |||
[K:G] !tenuto!E,3 .G, .F,.D,.E,.^C, | !tenuto!B,,6 B,,2 | =C,2 D,2 (E,2 F,2) | %50
w: point fla- ter je par- le|plein: Sans|point * fla- *|
w: |||
"^-"!mf! G,2 A,2 B,2 C2 |!<(! D2 G,2 A,2 B,2 |!f! C4!<)! z2 !^!E2 | !^!B,4 (C2 G,2) | %54
w: ter, Sans point fla-|ter je par- le|plein: Y-|ver, Y- *|
w: ||||
"^-"!p! D,2 z2 (!tenuto!=F,4 |!>(! !tenuto!C,6 D,2)!>)! | %56
w: ver, Y-|ver, _|
w: ||
!p!"^Div." ([E,G,]2 [D,F,]2 [C,E,]2 [G,,D,]2 | [A,,C,]2 [B,,D,]2 [C,E,]2 [D,F,]2) | %58
w: Y- ver, vous n'es-|tes qu'un vil- lain.|
w: ||
 ([E,G,]2 [D,F,]2 [C,E,]2 [G,,D,]2 |"^-" [A,,C,]2 [B,,D,]2 [C,E,]2 [D,F,]2) | %60
w: Y- ver vous n'es-|tes qu'un vil- lain,|
w: ||
 ([E,G,]2 [F,A,]2 [G,B,]2 [A,C]2) | ([F,A,]2 [G,B,]2 [A,C]2 [B,D]2) | ([G,B,]2 [A,C]2 B,2 C2-) | %63
w: Y- ver, vous n'es-|tes qu'un vil- lain,|Y- ver vous n'es-|
w: |||
 (C2 A,2 C2 D2 | C2 A,2) (C2 D2) | (!^!C2 D2) (!^!C2 D2) | (C2 !^!D2) (C2 !^!D2) | z8 | %68
w: * tes qu'un vil-|lain, _ Y- ver,|Y- ver, Y- ver,|Y- ver, Y- ver,||
w: |||||
!f!!ff! z4!<(! .G,.C.B,!<)!.A, | !^!!fermata!E,8 |] %70
w: n'es- tes qu'un vil-|lain.|
w: ||

